!!!SOCIAL_FUNCTION:	songs of war
!!!PDT:	1918

Specific Region: Dakotas, Minnesota, Montana, Nebraska
!!!REG: Dakotas and Montana
!!!LING_GROUP: Siouan
!!!LANG: Tone
!!!OTL@ENG: Like a Wolf I Roam
!!!ONM: No. 126
**kern
*Imale
*clefF4
*k[f#c#g#d#]
*M3/4
*MM80
8c#
8c#
8e
=1
4e
8.c#
16c#
(8c#
8B)
=2
4A
8.F#
16c#
8c#
8e
=3
8.c#
16c#
8B
8c#
8A
8F#
=4
4E
2C#
=5||
*M2/4
2A
=6
8F#
8F#
8F#
8F#
=7
8E
8E
8E
8E
=8||
*M3/4
4C#
4.C#
8C#
=9
4C#
2C#
==
*-
!!!CNT: Native American -- Sioux
!!!MRD: 1911/07//-1914///
!!!OCL: Frances Densmore
!!!YOR1: Teton Sioux Music, Bulletin 61,
!!!YOR2: Bureau of American Ethnology, Smithsonian Institution
!!!PPR: Government Printing Office
!!!PPP: Washington, D.C.
!!!PDT: 1918///
!!!ENC: Craig Stuart Sapp
!!!END: 2002/03/25/
!!!EEV: 2002/03/31/
!!!AGN: War Song/Song of a Typical War Expedition
!!!MPN@@SIO: Tatang'ka-wangzhi'la
!!!MPN@ENG: One Buffalo
!!!TXO: Teton Sioux
!!!MLC: Standing Rock Reservation, South Dakota, United States of America
!!!ARL: 45.9/-100.7#
!!!catalog: Catalogue No. 656
!!!PPG: 336
!!!EFL: 127/245
!!!VTS: 3665750384
